svgs/thin/pager.svg

<svg xmlns="http://www.w3.org/2000/svg" viewBox="0 0 512 512"><!--! Font Awesome Pro 6.0.0-alpha3 by @fontawesome - https://fontawesome.com License - https://fontawesome.com/license (Commercial License) --><path d="M448 64H64C28.63 64 0 92.63 0 128v256c0 35.38 28.62 64 64 64h384c35.38 0 64-28.62 64-64V128C512 92.63 483.4 64 448 64zM496 384c0 26.47-21.53 48-48 48H64c-26.47 0-48-21.53-48-48V128c0-26.47 21.53-48 48-48h384c26.47 0 48 21.53 48 48V384zM416 127.1H96c-17.62 0-32 14.38-32 32v64c0 17.62 14.38 32 32 32h320c17.62 0 32-14.38 32-32V160C448 142.4 433.6 127.1 416 127.1zM432 224c0 8.822-7.178 16-16 16H96C87.18 240 80 232.8 80 224V160c0-8.822 7.178-16 16-16h320c8.822 0 16 7.178 16 16V224zM152 320h-80C67.59 320 64 323.6 64 328s3.594 8 8 8h80C156.4 336 160 332.4 160 328S156.4 320 152 320zM280 320h-80C195.6 320 192 323.6 192 328s3.594 8 8 8h80c4.406 0 8-3.578 8-8S284.4 320 280 320z"/></svg>

<svg xmlns="http://www.w3.org/2000/svg" viewBox="0 0 512 512"><!--! Font Awesome Pro 6.4.2 by @fontawesome - https://fontawesome.com License - https://fontawesome.com/license (Commercial License) Copyright 2023 Fonticons, Inc. --><path d="M448 80c26.5 0 48 21.5 48 48V384c0 26.5-21.5 48-48 48H64c-26.5 0-48-21.5-48-48V128c0-26.5 21.5-48 48-48H448zM64 64C28.7 64 0 92.7 0 128V384c0 35.3 28.7 64 64 64H448c35.3 0 64-28.7 64-64V128c0-35.3-28.7-64-64-64H64zm0 264c0 4.4 3.6 8 8 8h80c4.4 0 8-3.6 8-8s-3.6-8-8-8H72c-4.4 0-8 3.6-8 8zm128 0c0 4.4 3.6 8 8 8h80c4.4 0 8-3.6 8-8s-3.6-8-8-8H200c-4.4 0-8 3.6-8 8zM96 144H416c8.8 0 16 7.2 16 16v64c0 8.8-7.2 16-16 16H96c-8.8 0-16-7.2-16-16V160c0-8.8 7.2-16 16-16zM64 160v64c0 17.7 14.3 32 32 32H416c17.7 0 32-14.3 32-32V160c0-17.7-14.3-32-32-32H96c-17.7 0-32 14.3-32 32z"/></svg>
